assets/svg/discount.svg

<?xml version="1.0" encoding="UTF-8"?>
<svg width="1000px" height="1000px" viewBox="0 0 1000 1000" version="1.1" xmlns="http://www.w3.org/2000/svg" xmlns:xlink="http://www.w3.org/1999/xlink">
    <!-- Generator: sketchtool 52.4 (67378) - http://www.bohemiancoding.com/sketch -->
    <title>discount</title>
    <desc>Created with sketchtool.</desc>
    <g id="旧版图标(剩余)" stroke="none" stroke-width="1" fill="none" fill-rule="evenodd">
        <g id="icon_liulanjilu-copy-11" fill="#7C6D4E">
            <path d="M593.197068,621.637582 C572.912284,621.99191 556.170693,605.781439 555.816374,585.496206 C555.491581,565.181445 571.672166,548.439484 591.986477,548.114684 C592.399849,548.114684 592.783695,548.114684 593.226595,548.114684 C613.511379,548.469011 629.691964,565.210972 629.367171,585.496206 C629.012851,605.33853 613.038953,621.312782 593.197068,621.637582 M593.197068,502.583636 C547.755608,502.583636 510.906393,539.433667 510.906393,584.876133 C510.906393,630.348126 547.755608,667.16863 593.226595,667.16863 C638.668054,667.16863 675.517269,630.318599 675.517269,584.876133 C675.487743,539.433667 638.668054,502.583636 593.197068,502.583636 M409.895845,364.691292 C430.180629,364.366492 446.92222,380.547436 447.276539,400.862196 C447.571805,421.14743 431.39122,437.889391 411.106436,438.243718 L409.866318,438.243718 C389.581534,437.889391 373.400949,421.14743 373.725742,400.832669 C374.080061,381.019872 390.05396,365.04562 409.895845,364.691292 M409.866318,483.833821 C455.337305,483.863348 492.18652,447.042844 492.216046,401.570851 C492.216046,356.128385 455.396358,319.278354 409.954898,319.248826 L409.866318,319.248826 C364.424858,319.278354 327.60517,356.128385 327.60517,401.570851 C327.634697,447.013317 364.454385,483.833821 409.866318,483.833821 M666.039226,328.727079 C653.401835,316.118936 632.969418,316.118936 620.332027,328.727079 L337.053687,612.011693 C324.682035,624.885582 325.095408,645.347979 337.939485,657.719904 C350.45877,669.737503 370.241602,669.737503 382.731359,657.719904 L666.039226,374.405764 C678.647091,361.827147 678.676617,341.394278 666.068753,328.786134 C666.039226,328.756607 666.039226,328.756607 666.039226,328.727079 M499.981546,0 C494.282909,0 488.584273,2.68698143 484.24386,8.03141701 L412.789453,96.3474769 C406.470758,104.172203 395.368751,108.778457 384.827749,108.778457 C380.959763,108.778457 377.150829,108.158384 373.666689,106.829657 L267.636616,66.0820268 C265.038274,65.0485724 262.292299,64.5170815 259.48727,64.4875543 C249.9797,64.4875543 242.037041,71.1607169 240.383551,81.8200608 L222.638055,194.053208 C220.482613,207.635752 207.609009,220.509641 193.997239,222.665131 L81.8256306,240.381492 C68.2138613,242.536983 61.1274738,254.820327 66.0584184,267.664688 L106.805146,373.726637 C111.736091,386.541471 107.011833,404.139723 96.3231983,412.791213 L8.03862081,484.27673 C-2.67954027,492.928219 -2.67954027,507.101308 8.03862081,515.752798 L96.3231983,587.208787 C107.011833,595.860277 111.736091,613.488056 106.805146,626.332418 L66.0584184,732.364839 C61.0979472,745.209201 68.2138613,757.492544 81.8256306,759.618508 L193.997239,777.364396 C207.579482,779.519887 220.482613,792.393776 222.638055,806.005846 L240.383551,918.209466 C242.066568,928.86881 249.9797,935.512446 259.48727,935.512446 C262.115139,935.512446 264.861114,935.010482 267.636616,933.947501 L373.666689,893.19987 C377.268936,891.871143 381.018816,891.192016 384.827749,891.221543 C395.368751,891.221543 406.470758,895.857324 412.789453,903.68205 L484.273387,991.968583 C488.584273,997.342546 494.282909,1000 500.011072,1000 C505.709709,1000 511.408346,997.342546 515.748758,991.968583 L587.203165,903.68205 C593.551387,895.857324 604.623868,891.221543 615.135343,891.221543 C619.032856,891.221543 622.841789,891.871143 626.296403,893.19987 L732.356002,933.947501 C735.131504,935.010482 737.847953,935.512446 740.475821,935.512446 C750.012918,935.512446 757.926051,928.86881 759.609068,918.209466 L777.354563,806.005846 C779.510006,792.423303 792.38361,779.549414 805.965852,777.393923 L918.196514,759.648035 C931.778757,757.492544 938.865145,745.238728 933.9342,732.364839 L893.187472,626.332418 C888.227001,613.488056 892.951259,595.889804 903.66942,587.238315 L991.983524,515.752798 C1002.67216,507.101308 1002.67216,492.957746 991.983524,484.27673 L903.639893,412.791213 C892.921732,404.139723 888.227001,386.541471 893.157945,373.726637 L933.904673,267.664688 C938.865145,254.820327 931.778757,242.536983 918.166988,240.41102 L805.965852,222.665131 C792.354083,220.509641 779.510006,207.635752 777.325036,194.053208 L759.609068,81.8200608 C757.926051,71.1607169 750.012918,64.5170815 740.475821,64.5170815 C737.847953,64.5170815 735.131504,65.0190451 732.326476,66.0820268 L626.296403,106.829657 C622.723683,108.158384 618.944276,108.837511 615.135343,108.778457 C604.623868,108.778457 593.521861,104.172203 587.203165,96.3474769 L515.719231,8.06094428 C511.378819,2.68698143 505.680182,0 499.981546,0 M499.981546,84.3298786 L527.441297,118.286237 C550.383477,146.602888 586.55358,163.492485 624.259067,163.492485 C639.170007,163.492485 653.549468,160.894086 667.043131,155.667759 L707.819386,140.018307 L714.640034,183.157646 C722.730326,234.298875 765.721077,277.261051 816.80212,285.351522 L859.97003,292.172321 L844.291398,332.949479 C825.748684,381.25609 841.456843,439.9563 881.701619,472.524877 L915.657226,500.014764 L881.701619,527.504651 C841.456843,560.073228 825.748684,618.773437 844.291398,667.080048 L859.97003,707.857206 L816.80212,714.678005 C765.69155,722.768477 722.730326,765.730652 714.610507,816.842354 L707.819386,860.01122 L667.043131,844.332241 C653.372308,839.105914 638.874741,836.44846 624.259067,836.507515 C586.55358,836.507515 550.383477,853.42664 527.441297,881.713763 L499.981546,915.670121 L472.492268,881.713763 C449.579615,853.42664 413.379985,836.507515 375.704025,836.507515 C360.822611,836.507515 346.413624,839.135442 332.919961,844.332241 L292.143706,860.01122 L285.293531,816.842354 C277.232766,765.730652 234.242015,722.768477 183.101918,714.678005 L139.963535,707.857206 L155.642167,667.080048 C174.214408,618.773437 158.447195,560.073228 118.231946,527.504651 L84.3058662,500.014764 L118.231946,472.524877 C158.476722,439.985827 174.243934,381.25609 155.671694,332.949479 L139.963535,292.172321 L183.101918,285.351522 C234.242015,277.261051 277.232766,234.298875 285.293531,183.157646 L292.143706,140.018307 L332.919961,155.697286 C346.413624,160.894086 360.822611,163.522013 375.674499,163.522013 C413.379985,163.522013 449.579615,146.602888 472.462741,118.286237 L499.981546,84.3298786" id="Fill-1"></path>
        </g>
    </g>
</svg>

<svg width="1000" height="1000" xmlns="http://www.w3.org/2000/svg"><path d="M593.197 621.638c-20.285.354-37.026-15.857-37.38-36.142-.325-20.315 15.855-37.057 36.17-37.381h1.24c20.284.354 36.465 17.096 36.14 37.381-.354 19.843-16.328 35.817-36.17 36.142m0-119.054c-45.441 0-82.29 36.85-82.29 82.292 0 45.472 36.849 82.293 82.32 82.293 45.441 0 82.29-36.85 82.29-82.293-.03-45.442-36.849-82.292-82.32-82.292M409.896 364.69c20.285-.325 37.026 15.856 37.38 36.171.296 20.285-15.885 37.027-36.17 37.382h-1.24c-20.284-.355-36.465-17.097-36.14-37.411.354-19.813 16.328-35.787 36.17-36.142m-.03 119.143c45.471.03 82.32-36.791 82.35-82.263 0-45.443-36.82-82.293-82.261-82.322h-.089c-45.441.03-82.26 36.88-82.26 82.322.029 45.442 36.848 82.263 82.26 82.263M666.04 328.727c-12.637-12.608-33.07-12.608-45.707 0L337.054 612.012c-12.372 12.874-11.959 33.336.885 45.708 12.52 12.018 32.303 12.018 44.792 0L666.04 374.406c12.608-12.579 12.638-33.012.03-45.62-.03-.03-.03-.03-.03-.059M499.982 0c-5.7 0-11.398 2.687-15.738 8.031l-71.455 88.316c-6.318 7.825-17.42 12.431-27.961 12.431-3.868 0-7.677-.62-11.161-1.948l-106.03-40.748a22.618 22.618 0 0 0-8.15-1.594c-9.507 0-17.45 6.673-19.103 17.332l-17.746 112.233c-2.155 13.583-15.029 26.457-28.64 28.612L81.825 240.381c-13.612 2.156-20.699 14.44-15.768 27.284l40.747 106.062c4.931 12.814.207 30.413-10.482 39.064L8.04 484.277c-10.719 8.651-10.719 22.824 0 31.476l88.284 71.456c10.689 8.651 15.413 26.28 10.482 39.123L66.058 732.365c-4.96 12.844 2.156 25.128 15.768 27.254l112.171 17.745c13.582 2.156 26.486 15.03 28.641 28.642l17.746 112.203c1.683 10.66 9.596 17.303 19.103 17.303 2.628 0 5.374-.502 8.15-1.564l106.03-40.748c3.602-1.329 7.352-2.008 11.16-1.978 10.542 0 21.644 4.635 27.962 12.46l71.484 88.287c4.311 5.374 10.01 8.031 15.738 8.031 5.699 0 11.397-2.657 15.738-8.031l71.454-88.287c6.348-7.825 17.42-12.46 27.932-12.46 3.898 0 7.707.65 11.161 1.978l106.06 40.748c2.776 1.062 5.492 1.564 8.12 1.564 9.537 0 17.45-6.643 19.133-17.303l17.746-112.203c2.155-13.583 15.029-26.457 28.61-28.612l112.232-17.746c13.582-2.155 20.668-14.41 15.737-27.283l-40.747-106.033c-4.96-12.844-.236-30.442 10.482-39.094l88.315-71.485c10.688-8.652 10.688-22.795 0-31.476L903.64 412.79c-10.718-8.651-15.413-26.25-10.482-39.064l40.747-106.062c4.96-12.845-2.126-25.128-15.738-27.254l-112.201-17.746c-13.612-2.155-26.456-15.03-28.641-28.612L759.609 81.82c-1.683-10.66-9.596-17.303-19.133-17.303-2.628 0-5.344.502-8.15 1.565l-106.03 40.748c-3.572 1.328-7.352 2.008-11.16 1.948-10.512 0-21.614-4.606-27.933-12.43L515.72 8.06C511.38 2.687 505.68 0 499.982 0m0 84.33l27.46 33.956c22.941 28.317 59.112 45.206 96.817 45.206 14.911 0 29.29-2.598 42.784-7.824l40.776-15.65 6.821 43.14c8.09 51.14 51.081 94.103 102.162 102.194l43.168 6.82-15.679 40.777c-18.542 48.307-2.834 107.007 37.41 139.576l33.956 27.49-33.955 27.49c-40.245 32.568-55.953 91.268-37.41 139.575l15.678 40.777-43.168 6.821c-51.11 8.09-94.072 51.053-102.191 102.164l-6.792 43.17-40.776-15.68a118.45 118.45 0 0 0-42.784-7.824c-37.705 0-73.876 16.919-96.818 45.206l-27.46 33.956-27.489-33.956c-22.912-28.287-59.112-45.206-96.788-45.206-14.881 0-29.29 2.627-42.784 7.824l-40.776 15.68-6.85-43.17c-8.061-51.111-51.052-94.074-102.192-102.164l-43.138-6.82 15.678-40.778c18.572-48.307 2.805-107.007-37.41-139.575l-33.926-27.49 33.926-27.49c40.245-32.54 56.012-91.269 37.44-139.576l-15.708-40.777 43.138-6.82c51.14-8.09 94.13-51.053 102.192-102.194l6.85-43.14 40.776 15.68c13.494 5.196 27.903 7.824 42.754 7.824 37.706 0 73.906-16.92 96.789-45.236l27.519-33.956" fill="#7C6D4E" fill-rule="evenodd"/></svg>
